X:996
T:Reel 996
M:4/4
K:Gmaj
L:1/8
dc|:Bdgd Bdgd|Bdde d2ga|Bddd Bdgd|cAAB cdef|gdgd BGGd|Bdgd e2dc'|bc'bg faad|efge d2dg|aaaa bebd'ag|faaf e2dd'|e2ea b2d'b|agfd defg|abaf e2ga|bgeg b2ag|f2af g2fd|ee'ef gfed|
